overrides/.icons/devices/prowiper.svg

<?xml version="1.0" encoding="UTF-8" standalone="no"?>
<svg
   viewBox="0 0 120 120"
   width="100%"
   height="100%"
   version="1.1"
   id="svg8"
   xmlns="http://www.w3.org/2000/svg"
   xmlns:svg="http://www.w3.org/2000/svg">
  <defs
     id="defs1">
    <rect
       x="8.75"
       y="46.625"
       width="33"
       height="18.125"
       id="rect2" />
  </defs>
  <path
     fill="currentColor"
     d="M 25.048828 11.941406 L 25.048828 27.087891 L 36.699219 41.068359 L 36.699219 70.193359 L 1.7480469 93.496094 L 1.7480469 110.9707 L 118.25195 110.9707 L 118.25195 93.496094 L 83.300781 70.193359 L 83.300781 41.068359 L 94.951172 27.087891 L 94.951172 11.941406 L 73.980469 11.941406 A 13.980583 13.980583 0 0 1 46.019531 11.941406 L 25.048828 11.941406 z M 35.533203 17.183594 A 3.4951456 3.4951456 0 0 1 39.029297 20.679688 A 3.4951456 3.4951456 0 0 1 35.533203 24.173828 A 3.4951456 3.4951456 0 0 1 32.039062 20.679688 A 3.4951456 3.4951456 0 0 1 35.533203 17.183594 z M 84.466797 17.183594 A 3.4951456 3.4951456 0 0 1 87.960938 20.679688 A 3.4951456 3.4951456 0 0 1 84.466797 24.173828 A 3.4951456 3.4951456 0 0 1 80.970703 20.679688 A 3.4951456 3.4951456 0 0 1 84.466797 17.183594 z M 46.019531 35.826172 L 60 45.146484 L 73.980469 35.826172 L 73.980469 42.816406 L 60 52.136719 L 46.019531 42.816406 L 46.019531 35.826172 z M 46.019531 49.806641 L 60 59.126953 L 73.980469 49.806641 L 73.980469 56.796875 L 60 66.117188 L 46.019531 56.796875 L 46.019531 49.806641 z M 70.705078 78.060547 C 71.399967 78.060547 72.009188 78.135117 72.533203 78.283203 C 73.062913 78.425598 73.541564 78.620478 73.96875 78.871094 C 74.395936 79.116014 74.75867 79.381226 75.060547 79.666016 L 75.523438 80.09375 L 73.900391 81.878906 L 73.609375 81.572266 C 73.415717 81.361521 73.181601 81.17299 72.908203 81.007812 C 72.640501 80.836939 72.333772 80.698064 71.986328 80.589844 C 71.64458 80.475928 71.234307 80.417969 70.755859 80.417969 C 69.690743 80.417969 68.795633 80.784773 68.072266 81.519531 C 67.3489 82.248595 66.988281 83.199711 66.988281 84.373047 C 66.988281 85.517904 67.334409 86.456484 68.029297 87.185547 C 68.724187 87.91461 69.621413 88.279297 70.720703 88.279297 C 71.221935 88.279297 71.663303 88.221337 72.044922 88.107422 C 72.426542 87.993506 72.758015 87.842259 73.037109 87.654297 C 73.316203 87.46064 73.546251 87.253387 73.728516 87.03125 L 74.001953 86.697266 L 75.71875 88.279297 L 75.265625 88.798828 C 74.969443 89.146272 74.602639 89.461139 74.164062 89.740234 C 73.725487 90.013632 73.215739 90.231305 72.634766 90.396484 C 72.05949 90.555966 71.396377 90.636719 70.644531 90.636719 C 68.787699 90.636719 67.281249 90.056476 66.125 88.894531 C 64.968751 87.732587 64.390625 86.224184 64.390625 84.373047 C 64.390625 82.493431 64.987476 80.974445 66.183594 79.8125 C 67.379713 78.64486 68.888116 78.060547 70.705078 78.060547 z M 59.765625 78.205078 L 61.277344 78.205078 L 61.277344 90.464844 L 58.988281 90.464844 L 58.988281 81.126953 L 56.707031 82.785156 L 55.65625 81.169922 L 59.765625 78.205078 z M 44.28125 78.230469 L 46.792969 78.230469 L 46.792969 84.011719 L 51.628906 78.230469 L 54.464844 78.230469 L 50.181641 83.251953 L 54.763672 90.464844 L 51.902344 90.464844 L 48.556641 85.085938 L 46.792969 86.994141 L 46.792969 90.464844 L 44.28125 90.464844 L 44.28125 78.230469 z M 7.2597656 95.277344 L 112.74023 95.277344 C 114.20113 95.277344 115.37695 96.455116 115.37695 97.916016 L 115.37695 105.38672 C 115.37695 106.84762 114.20113 108.02344 112.74023 108.02344 L 7.2597656 108.02344 C 5.7988636 108.02344 4.6230469 106.84762 4.6230469 105.38672 L 4.6230469 97.916016 C 4.6230469 96.455116 5.7988636 95.277344 7.2597656 95.277344 z " />
</svg>

<?xml version="1.0" encoding="UTF-8"?>
<svg version="1.1" viewBox="0 0 120 120" xmlns="http://www.w3.org/2000/svg"><path d="m25.049 11.941v15.146l11.65 13.98v29.125l-34.951 23.303v17.475h116.5v-17.475l-34.951-23.303v-29.125l11.65-13.98v-15.146h-20.971a13.981 13.981 0 01-27.961 0h-20.971zm10.484 5.2422a3.4951 3.4951 0 013.4961 3.4961 3.4951 3.4951 0 01-3.4961 3.4941 3.4951 3.4951 0 01-3.4941-3.4941 3.4951 3.4951 0 013.4941-3.4961zm48.934 0a3.4951 3.4951 0 013.4941 3.4961 3.4951 3.4951 0 01-3.4941 3.4941 3.4951 3.4951 0 01-3.4961-3.4941 3.4951 3.4951 0 013.4961-3.4961zm-38.447 18.643 13.98 9.3203 13.98-9.3203v6.9902l-13.98 9.3203-13.98-9.3203v-6.9902zm0 13.98 13.98 9.3203 13.98-9.3203v6.9902l-13.98 9.3203-13.98-9.3203v-6.9902zm24.686 28.254c.69489 0 1.3041.07457 1.8281.22266.52971.1424 1.0084.33728 1.4355.58789.42719.24492.78992.51013 1.0918.79492l.46289.42773-1.623 1.7852-.29102-.30664c-.19366-.21074-.42777-.39928-.70117-.56445-.2677-.17087-.57443-.30975-.92188-.41797-.34175-.11392-.75202-.17188-1.2305-.17188-1.0651 0-1.9602.3668-2.6836 1.1016-.72337.72906-1.084 1.6802-1.084 2.8535 0 1.1449.34613 2.0834 1.041 2.8125.69489.72906 1.5921 1.0938 2.6914 1.0938.50123 0 .9426-.05796 1.3242-.17188.38162-.11392.71309-.26516.99219-.45312.27909-.19366.50914-.40091.69141-.62305l.27344-.33398 1.7168 1.582-.45312.51953c-.29618.34744-.66299.66231-1.1016.94141-.43858.2734-.94832.49107-1.5293.65625-.57528.15948-1.2384.24024-1.9902.24024-1.8568 0-3.3633-.58024-4.5195-1.7422-1.1562-1.1619-1.7344-2.6703-1.7344-4.5215 0-1.8796.59685-3.3986 1.793-4.5605 1.1961-1.1676 2.7045-1.752 4.5215-1.752zm-10.939.14453h1.5117v12.26h-2.2891v-9.3379l-2.2812 1.6582-1.0508-1.6152 4.1094-2.9648zm-15.484.025391h2.5117v5.7812l4.8359-5.7812h2.8359l-4.2832 5.0215 4.582 7.2129h-2.8613l-3.3457-5.3789-1.7637 1.9082v3.4707h-2.5117v-12.234zm-37.021 17.047h105.48c1.4609 0 2.6367 1.1778 2.6367 2.6387v7.4707c0 1.4609-1.1758 2.6367-2.6367 2.6367h-105.48c-1.4609 0-2.6367-1.1758-2.6367-2.6367v-7.4707c0-1.4609 1.1758-2.6387 2.6367-2.6387z" fill="currentColor"/></svg>
